app/assets/images/mic.svg

<?xml version="1.0" encoding="UTF-8" standalone="no" ?>
<!DOCTYPE svg PUBLIC "-//W3C//DTD SVG 1.1//EN" "http://www.w3.org/Graphics/SVG/1.1/DTD/svg11.dtd">
<svg xmlns="http://www.w3.org/2000/svg" xmlns:xlink="http://www.w3.org/1999/xlink" version="1.1" width="500" height="500" viewBox="0 0 500 500" xml:space="preserve">
<desc>Created with Fabric.js 4.6.0</desc>
<defs>
</defs>
<g transform="matrix(4.94 0 0 4.94 247.53 247.51)" id="w03qtxrg9HWCGDZdb03sz"  >
<filter id="SVGID_0" y="-21%" height="142%" x="-21%" width="142%" >
	<feGaussianBlur in="SourceAlpha" stdDeviation="0"></feGaussianBlur>
	<feOffset dx="1" dy="1" result="oBlur" ></feOffset>
	<feFlood flood-color="rgb(101,103,101)" flood-opacity="1"/>
	<feComposite in2="oBlur" operator="in" />
	<feMerge>
		<feMergeNode></feMergeNode>
		<feMergeNode in="SourceGraphic"></feMergeNode>
	</feMerge>
</filter>
<path style="stroke: rgb(229,199,150); stroke-width: 0; stroke-dasharray: none; stroke-linecap: butt; stroke-dashoffset: 0; stroke-linejoin: miter; stroke-miterlimit: 4; fill: rgb(240,248,255); fill-rule: nonzero; opacity: 1;filter: url(#SVGID_0);" vector-effect="non-scaling-stroke"  transform=" translate(0, 0)" d="M 0 -50 C 27.6 -50 50 -27.6 50 0 C 50 27.6 27.6 50 0 50 C -27.6 50 -50 27.6 -50 0 C -50 -27.6 -27.6 -50 0 -50 z" stroke-linecap="round" />
</g>
<g transform="matrix(1.21 0 0 1.21 247.53 166.35)" id="5Ek6qQRll702Yur2U4vYA"  >
<filter id="SVGID_1" y="-21%" height="142%" x="-22%" width="144%" >
	<feGaussianBlur in="SourceAlpha" stdDeviation="0"></feGaussianBlur>
	<feOffset dx="3" dy="3" result="oBlur" ></feOffset>
	<feFlood flood-color="rgb(101,103,101)" flood-opacity="0.5"/>
	<feComposite in2="oBlur" operator="in" />
	<feMerge>
		<feMergeNode></feMergeNode>
		<feMergeNode in="SourceGraphic"></feMergeNode>
	</feMerge>
</filter>
<path style="stroke: rgb(252,250,242); stroke-width: 0; stroke-dasharray: none; stroke-linecap: butt; stroke-dashoffset: 0; stroke-linejoin: miter; stroke-miterlimit: 4; fill: rgb(170,214,236); fill-rule: nonzero; opacity: 1;filter: url(#SVGID_1);" vector-effect="non-scaling-stroke"  transform=" translate(-187.41, -120.57)" d="M 187.40625 241.042969 C 224.292969 241.042969 254.28125 211.003906 254.28125 174.113281 L 254.28125 67.03125 C 254.28125 30.140625 224.292969 0.105469 187.40625 0.105469 C 150.519531 0.105469 120.53125 30.140625 120.53125 67.03125 L 120.53125 174.113281 C 120.53125 211.003906 150.519531 241.042969 187.40625 241.042969 Z M 147.28125 67.03125 C 147.28125 44.890625 165.285156 26.875 187.40625 26.875 C 209.527344 26.875 227.53125 44.890625 227.53125 67.03125 L 227.53125 174.113281 C 227.53125 196.253906 209.527344 214.269531 187.40625 214.269531 C 165.285156 214.269531 147.28125 196.253906 147.28125 174.113281 Z M 147.28125 67.03125" stroke-linecap="round" />
</g>
<g transform="matrix(1.21 0 0 1.21 247.53 312.47)" id="HyloSI-47hGbpv4bSgilJ" clip-path="url(#CLIPPATH_4)"  >
<filter id="SVGID_2" y="-21%" height="142%" x="-21%" width="142%" >
	<feGaussianBlur in="SourceAlpha" stdDeviation="0"></feGaussianBlur>
	<feOffset dx="3" dy="3" result="oBlur" ></feOffset>
	<feFlood flood-color="rgb(101,103,101)" flood-opacity="0.5"/>
	<feComposite in2="oBlur" operator="in" />
	<feMerge>
		<feMergeNode></feMergeNode>
		<feMergeNode in="SourceGraphic"></feMergeNode>
	</feMerge>
</filter>
<clipPath id="CLIPPATH_4" >
	<path transform="matrix(1 0 0 1 0 -0.04) translate(-187.41, -241)" id="id1" d="M 67.03125 107 L 307.78125 107 L 307.78125 375 L 67.03125 375 Z M 67.03125 107" stroke-linecap="round" />
</clipPath>
<path style="stroke: rgb(252,250,242); stroke-width: 0; stroke-dasharray: none; stroke-linecap: butt; stroke-dashoffset: 0; stroke-linejoin: miter; stroke-miterlimit: 4; fill: rgb(170,214,236); fill-rule: nonzero; opacity: 1;filter: url(#SVGID_2);" vector-effect="non-scaling-stroke"  transform=" translate(-187.41, -241.04)" d="M 294.40625 107.1875 C 293.527344 107.1875 292.660156 107.273438 291.796875 107.445312 C 290.9375 107.617188 290.097656 107.871094 289.289062 108.207031 C 288.476562 108.542969 287.707031 108.953125 286.976562 109.441406 C 286.246094 109.929688 285.570312 110.488281 284.949219 111.109375 C 284.328125 111.730469 283.773438 112.40625 283.285156 113.136719 C 282.796875 113.867188 282.386719 114.636719 282.050781 115.449219 C 281.714844 116.261719 281.460938 117.097656 281.289062 117.960938 C 281.117188 118.824219 281.03125 119.695312 281.03125 120.574219 L 281.03125 174.113281 C 281.03125 225.78125 239.035156 267.8125 187.40625 267.8125 C 135.777344 267.8125 93.78125 225.78125 93.78125 174.113281 L 93.78125 120.574219 C 93.78125 119.695312 93.695312 118.824219 93.523438 117.960938 C 93.351562 117.097656 93.097656 116.261719 92.761719 115.449219 C 92.425781 114.636719 92.015625 113.867188 91.527344 113.136719 C 91.039062 112.40625 90.484375 111.730469 89.863281 111.109375 C 89.242188 110.488281 88.566406 109.929688 87.835938 109.441406 C 87.105469 108.953125 86.335938 108.542969 85.523438 108.207031 C 84.714844 107.871094 83.875 107.617188 83.015625 107.445312 C 82.152344 107.273438 81.285156 107.1875 80.40625 107.1875 C 79.527344 107.1875 78.660156 107.273438 77.796875 107.445312 C 76.9375 107.617188 76.097656 107.871094 75.289062 108.207031 C 74.476562 108.542969 73.707031 108.953125 72.976562 109.441406 C 72.246094 109.929688 71.570312 110.488281 70.949219 111.109375 C 70.328125 111.730469 69.773438 112.40625 69.285156 113.136719 C 68.796875 113.867188 68.386719 114.636719 68.050781 115.449219 C 67.714844 116.261719 67.460938 117.097656 67.289062 117.960938 C 67.117188 118.824219 67.03125 119.695312 67.03125 120.574219 L 67.03125 174.113281 C 67.03125 235.957031 114.003906 286.472656 174.03125 293.21875 L 174.03125 348.125 L 133.90625 348.125 C 133.027344 348.125 132.160156 348.210938 131.296875 348.382812 C 130.4375 348.554688 129.597656 348.808594 128.789062 349.144531 C 127.976562 349.480469 127.207031 349.890625 126.476562 350.378906 C 125.746094 350.867188 125.070312 351.425781 124.449219 352.046875 C 123.828125 352.667969 123.273438 353.34375 122.785156 354.074219 C 122.296875 354.804688 121.886719 355.574219 121.550781 356.386719 C 121.214844 357.199219 120.960938 358.035156 120.789062 358.898438 C 120.617188 359.761719 120.53125 360.632812 120.53125 361.511719 C 120.53125 362.390625 120.617188 363.257812 120.789062 364.121094 C 120.960938 364.984375 121.214844 365.820312 121.550781 366.632812 C 121.886719 367.445312 122.296875 368.214844 122.785156 368.945312 C 123.273438 369.675781 123.828125 370.355469 124.449219 370.976562 C 125.070312 371.597656 125.746094 372.152344 126.476562 372.640625 C 127.207031 373.128906 127.976562 373.539062 128.789062 373.875 C 129.597656 374.214844 130.4375 374.46875 131.296875 374.636719 C 132.160156 374.808594 133.027344 374.894531 133.90625 374.894531 L 240.90625 374.894531 C 241.785156 374.894531 242.652344 374.808594 243.515625 374.636719 C 244.375 374.46875 245.214844 374.214844 246.023438 373.875 C 246.835938 373.539062 247.605469 373.128906 248.335938 372.640625 C 249.066406 372.152344 249.742188 371.597656 250.363281 370.976562 C 250.984375 370.355469 251.539062 369.675781 252.027344 368.945312 C 252.515625 368.214844 252.925781 367.445312 253.261719 366.632812 C 253.597656 365.820312 253.851562 364.984375 254.023438 364.121094 C 254.195312 363.257812 254.28125 362.390625 254.28125 361.511719 C 254.28125 360.632812 254.195312 359.761719 254.023438 358.898438 C 253.851562 358.035156 253.597656 357.199219 253.261719 356.386719 C 252.925781 355.574219 252.515625 354.804688 252.027344 354.074219 C 251.539062 353.34375 250.984375 352.667969 250.363281 352.046875 C 249.742188 351.425781 249.066406 350.867188 248.335938 350.378906 C 247.605469 349.890625 246.835938 349.480469 246.023438 349.144531 C 245.214844 348.808594 244.375 348.554688 243.515625 348.382812 C 242.652344 348.210938 241.785156 348.125 240.90625 348.125 L 200.78125 348.125 L 200.78125 293.21875 C 260.808594 286.472656 307.78125 235.957031 307.78125 174.113281 L 307.78125 120.574219 C 307.78125 119.695312 307.695312 118.824219 307.523438 117.960938 C 307.351562 117.097656 307.097656 116.261719 306.761719 115.449219 C 306.425781 114.636719 306.015625 113.867188 305.527344 113.136719 C 305.039062 112.40625 304.484375 111.730469 303.863281 111.109375 C 303.242188 110.488281 302.566406 109.929688 301.835938 109.441406 C 301.105469 108.953125 300.335938 108.542969 299.523438 108.207031 C 298.714844 107.871094 297.875 107.617188 297.015625 107.445312 C 296.152344 107.273438 295.285156 107.1875 294.40625 107.1875 Z M 294.40625 107.1875" stroke-linecap="round" />
</g>
</svg>

<svg xmlns="http://www.w3.org/2000/svg" width="500" height="500" viewBox="0 0 500 500"><g transform="matrix(4.94 0 0 4.94 247.53 247.51)"><filter id="a" y="-21%" height="142%" x="-21%" width="142%"><feGaussianBlur in="SourceAlpha"/><feOffset dx="1" dy="1" result="oBlur"/><feFlood flood-color="#656765" flood-opacity="1"/><feComposite in2="oBlur" operator="in"/><feMerge><feMergeNode/><feMergeNode in="SourceGraphic"/></feMerge></filter><path vector-effect="non-scaling-stroke" d="M0-50c27.6 0 50 22.4 50 50S27.6 50 0 50-50 27.6-50 0s22.4-50 50-50z" fill="#f0f8ff" filter="url(#a)"/></g><g transform="matrix(1.21 0 0 1.21 247.53 166.35)"><filter id="b" y="-21%" height="142%" x="-22%" width="144%"><feGaussianBlur in="SourceAlpha"/><feOffset dx="3" dy="3" result="oBlur"/><feFlood flood-color="#656765" flood-opacity=".5"/><feComposite in2="oBlur" operator="in"/><feMerge><feMergeNode/><feMergeNode in="SourceGraphic"/></feMerge></filter><path vector-effect="non-scaling-stroke" transform="translate(-187.41 -120.57)" d="M187.406 241.043c36.887 0 66.875-30.04 66.875-66.93V67.031c0-36.89-29.988-66.926-66.875-66.926-36.886 0-66.875 30.036-66.875 66.926v107.082c0 36.89 29.989 66.93 66.875 66.93zM147.281 67.031c0-22.14 18.004-40.156 40.125-40.156s40.125 18.016 40.125 40.156v107.082c0 22.14-18.004 40.157-40.125 40.157-22.12 0-40.125-18.016-40.125-40.157zm0 0" fill="#aad6ec" filter="url(#b)"/></g><g transform="matrix(1.21 0 0 1.21 247.53 312.47)" clip-path="url(#c)"><filter id="d" y="-21%" height="142%" x="-21%" width="142%"><feGaussianBlur in="SourceAlpha"/><feOffset dx="3" dy="3" result="oBlur"/><feFlood flood-color="#656765" flood-opacity=".5"/><feComposite in2="oBlur" operator="in"/><feMerge><feMergeNode/><feMergeNode in="SourceGraphic"/></feMerge></filter><clipPath id="c"><path transform="translate(-187.41 -241.04)" d="M67.031 107h240.75v268H67.031zm0 0" stroke-linecap="round"/></clipPath><path vector-effect="non-scaling-stroke" transform="translate(-187.41 -241.04)" d="M294.406 107.188a13.312 13.312 0 00-5.117 1.019 13.27 13.27 0 00-4.34 2.902 13.36 13.36 0 00-3.66 6.852 13.351 13.351 0 00-.258 2.613v53.54c0 51.667-41.996 93.698-93.625 93.698s-93.625-42.03-93.625-93.699v-53.539a13.351 13.351 0 00-1.02-5.125 13.27 13.27 0 00-2.898-4.34 13.27 13.27 0 00-4.34-2.902 13.365 13.365 0 00-17.472 7.242 13.403 13.403 0 00-1.02 5.125v53.54c0 61.843 46.973 112.359 107 119.105v54.906h-40.125a13.312 13.312 0 00-5.117 1.02 13.27 13.27 0 00-4.34 2.902 13.36 13.36 0 00-3.66 6.851 13.351 13.351 0 00.762 7.735 13.39 13.39 0 004.926 6.008c.73.488 1.5.898 2.312 1.234.809.34 1.649.594 2.508.762.863.172 1.73.258 2.61.258h107c.878 0 1.745-.086 2.609-.258a12.79 12.79 0 002.507-.762 13.27 13.27 0 004.34-2.898 13.39 13.39 0 003.66-6.856 13.312 13.312 0 000-5.223 13.403 13.403 0 00-5.687-8.52 13.27 13.27 0 00-2.313-1.233 13.365 13.365 0 00-5.117-1.02h-40.125v-54.906c60.028-6.746 107-57.262 107-119.106v-53.539a13.351 13.351 0 00-1.02-5.125 13.27 13.27 0 00-2.898-4.34 13.27 13.27 0 00-4.34-2.902 13.365 13.365 0 00-5.117-1.02zm0 0" fill="#aad6ec" filter="url(#d)"/></g></svg>
